svg/transport/fan_2_fill.svg

<?xml version="1.0" encoding="UTF-8"?>
<svg width="24px" height="24px" viewBox="0 0 24 24" version="1.1" xmlns="http://www.w3.org/2000/svg" xmlns:xlink="http://www.w3.org/1999/xlink">
    <title>fan_2_fill</title>
    <g id="页面-1" stroke="none" stroke-width="1" fill="none" fill-rule="evenodd">
        <g id="Transport" transform="translate(-528.000000, -144.000000)" fill-rule="nonzero">
            <g id="fan_2_fill" transform="translate(528.000000, 144.000000)">
                 <path d="M24,0 L24,24 L0,24 L0,0 L24,0 Z M12.5934901,23.257841 L12.5819402,23.2595131 L12.5108777,23.2950439 L12.4918791,23.2987469 L12.4918791,23.2987469 L12.4767152,23.2950439 L12.4056548,23.2595131 C12.3958229,23.2563662 12.3870493,23.2590235 12.3821421,23.2649074 L12.3780323,23.275831 L12.360941,23.7031097 L12.3658947,23.7234994 L12.3769048,23.7357139 L12.4804777,23.8096931 L12.4953491,23.8136134 L12.4953491,23.8136134 L12.5071152,23.8096931 L12.6106902,23.7357139 L12.6232938,23.7196733 L12.6232938,23.7196733 L12.6266527,23.7031097 L12.609561,23.275831 C12.6075724,23.2657013 12.6010112,23.2592993 12.5934901,23.257841 L12.5934901,23.257841 Z M12.8583906,23.1452862 L12.8445485,23.1473072 L12.6598443,23.2396597 L12.6498822,23.2499052 L12.6498822,23.2499052 L12.6471943,23.2611114 L12.6650943,23.6906389 L12.6699349,23.7034178 L12.6699349,23.7034178 L12.678386,23.7104931 L12.8793402,23.8032389 C12.8914285,23.8068999 12.9022333,23.8029875 12.9078286,23.7952264 L12.9118235,23.7811639 L12.8776777,23.1665331 C12.8752882,23.1545897 12.8674102,23.1470016 12.8583906,23.1452862 L12.8583906,23.1452862 Z M12.1430473,23.1473072 C12.1332178,23.1423925 12.1221763,23.1452606 12.1156365,23.1525954 L12.1099173,23.1665331 L12.0757714,23.7811639 C12.0751323,23.7926639 12.0828099,23.8018602 12.0926481,23.8045676 L12.108256,23.8032389 L12.3092106,23.7104931 L12.3186497,23.7024347 L12.3186497,23.7024347 L12.3225043,23.6906389 L12.340401,23.2611114 L12.337245,23.2485176 L12.337245,23.2485176 L12.3277531,23.2396597 L12.1430473,23.1473072 Z" id="MingCute" fill-rule="nonzero"></path>
                <path d="M8,11 C9.12561,11 10.1643,11.3719 11,11.9996 C9.78555,12.9118 9,14.3642 9,16 C9,17.6358 9.78555,19.0882 11,20.0004 C10.1643,20.6281 9.12561,21 8,21 C5.23858,21 3,18.7614 3,16 C3,13.2386 5.23858,11 8,11 Z M20.0004,13 C20.6281,13.8357 21,14.8744 21,16 C21,18.7614 18.7614,21 16,21 C13.2386,21 11,18.7614 11,16 C11,14.8744 11.3719,13.8357 11.9996,13 C12.9118,14.2144 14.3642,15 16,15 C17.6358,15 19.0882,14.2144 20.0004,13 Z M16,3 C18.7614,3 21,5.23858 21,8 C21,10.7614 18.7614,13 16,13 C14.8744,13 13.8357,12.6281 13,12.0004 C14.2144,11.0882 15,9.63582 15,8 C15,6.36418 14.2144,4.91184 13,3.99963 C13.8357,3.37194 14.8744,3 16,3 Z M8,3 C10.7614,3 13,5.23858 13,8 C13,9.12561 12.6281,10.1643 12.0004,11 C11.0882,9.78555 9.63582,9 8,9 C6.36418,9 4.91184,9.78555 3.99963,11 C3.37194,10.1643 3,9.12561 3,8 C3,5.23858 5.23858,3 8,3 Z" id="形状" fill="#09244B"></path>
            </g>
        </g>
    </g>
</svg>

<svg xmlns="http://www.w3.org/2000/svg" width="24" height="24"><g fill="none" fill-rule="nonzero"><path d="M24 0v24H0V0h24ZM12.593 23.258l-.011.002-.071.035-.02.004-.014-.004-.071-.035c-.01-.004-.019-.001-.024.005l-.004.01-.017.428.005.02.01.013.104.074.015.004.012-.004.104-.074.012-.016.004-.017-.017-.427c-.002-.01-.009-.017-.017-.018Zm.265-.113-.013.002-.185.093-.01.01-.003.011.018.43.005.012.008.007.201.093c.012.004.023 0 .029-.008l.004-.014-.034-.614c-.003-.012-.01-.02-.02-.022Zm-.715.002a.023.023 0 0 0-.027.006l-.006.014-.034.614c0 .012.007.02.017.024l.015-.002.201-.093.01-.008.004-.011.017-.43-.003-.012-.01-.01-.184-.092Z"/><path fill="#09244B" d="M8 11c1.126 0 2.164.372 3 1a4.992 4.992 0 0 0-2 4c0 1.636.786 3.088 2 4a5 5 0 1 1-3-9Zm12 2a5 5 0 1 1-8 0 4.993 4.993 0 0 0 4 2 4.993 4.993 0 0 0 4-2ZM16 3a5 5 0 1 1-3 9 4.993 4.993 0 0 0 2-4 4.993 4.993 0 0 0-2-4c.836-.628 1.874-1 3-1ZM8 3a5 5 0 0 1 4 8 4.992 4.992 0 0 0-4-2 4.992 4.992 0 0 0-4 2 5 5 0 0 1 4-8Z"/></g></svg>
